!!!OTL: 502. Ade, mein Lieb, ade!
!!!COM: Volksweise
!!!ARE: Europa, Mitteleuropa, Deutschland; Boehmen?
!!!SCT: B0502
!!!TXL: @@DE
!!!YEM: Copyright 1995, estate of Helmut Schaffrath.
**kern	**text
*ICvox	*
*Ivox	*
*clefG2	*
*M4/4	*
*met(c)	*
*k[f#]	*
*G:	*
!LO:TX:a:t=Mäßig.	!
{4d	Es
=1	=1
4g	ſchei-
8b	-nen
8b	die
4b	Stern-
8a	-lein
8g	ſo
=2	=2
4.a	hell,
8b	ſo
4a}	hell
{8dL	her-
8f#J	.
=3	=3
4a	-ab
8cc	von
8cc	des
4ee	Him-
8ddL	-mels
8ccJ	.
=4	=4
2b	Höh'
4r}	.
{4d	ʒwei
=5	=5
4g	Lie-
8b	-ben-
8b	-de
4dd	ſtan-
8cc	-den
8b	hier
=6	=6
4a	auf
4a	der
4cc}	Schwell',
{8bL	ach,
8aJ	.
=7	=7
4.b	Hand
8b	in
4a	Hand,
4a	-a-
=8	=8
2.dd}	-de!
{8ddL	ach
8ccJ	.
=9	=9
4.b	Hand
8dd	in
4b/	Hand
4a	-a-
=10	=10
2g	-de!
4r}	.
==	==
!!!AGN: Abschieds - Lied
!!!GTL: Abschiedslieder
!!!ONB: ESAC (Essen Associative Code) Database: BOEHME
!!!AMT: simple quadruple
!!!AIN: vox
!!!EED: Helmut Schaffrath
!!!EEV: 1.0
!!Volksweiſe (aus Böhmen? )
!!@@COMMENT:"Das Gedicht iſt von Dr. med. Siegfried Kapper und ſand ſich mit beiden Melodien vielfach in Volksmund 
!!(ſ. Becker's Rheinl. Volksliederborn" Nr. 154). Mit der erſten Melodie und
!!der Beʒeichnung "Böhmiſches Volkslied" giebt Erk das Lied in ſeiner Liedertafel 1882 Nr. 75.
!!ebenſo vorher ſchon Jgnaʒ Heine in "Volksgeſänge für Männerchor". Ʒürich 1864. 11. Aufl.
!!Nr. 139. - Da Kapper ſein böhmiſcher Jude) meiſt nur ſlaviſche Volksdichtungen überſetʒte und
!!dieſe Gedichte als Slaviſche Melodien 1844 herausgab, ſo bleibt auch für dieſen Text wahr-
!!ſcheinlich, daß er die Ueberſetʒung eines böhm. Volksliedes iſt und mag auch die erſte Singweiſe aus Böhmen ſtammen. "
!!@@END:
!!!Text: S. Kapper
!!!URL-scan: https://archive.org/details/BoehmeVtLieder1895/page/n401/mode/2up
!!!ENC: Anna Maria Matuszewska
!!!EEV: 2024/11/07
*-	*-
